X:1
T:2-Rondo
T:2-Rondo
T:Opus 1, Sonatina III, no; 2
T:Matteo Carcassi
T:Tab by Cornelis van Biemen
C:Matteo Carcassi
%%score { ( 1 2 ) | ( 3 4 ) }
L:1/8
Q:1/4=80
M:2/4
K:A
V:1 treble-8 nm="Guitar" snm="Guit."
V:2 treble-8 
V:3 tab stafflines=6 strings=E2,A2,D3,G3,B3,E4 nostems 
V:4 tab stafflines=6 strings=E2,A2,D3,G3,B3,E4 nostems 
V:1
!p!"^Allegretto"{/!2!d'} c'/>b/c'/>e'/ | aa{/b} a/>g/a/>c'/ | !0!e2 e/^d/=d/B/ | %3
 c/e/B/e/ A/e/c/e/ | B2{/!2!d'} c'/>b/c'/>e'/ | aa{/b} a/>g/a/>c'/ | e2 e/^d/=d/B/ | %7
 c/e/A/e/ B/e/G/e/ | A2{/g} e/^d/e/!mf!f/ | e/(^d/=d/)B/ G/(E/D/)B,/ | C/E/A/c/ e/a/g/f/ | %11
 e/(^d/=d/)B/ G/(E/D/)B,/ | C/E/A/c/{/f} e/^d/e/a/ |!f! A/c'/G/b/ F/a/E/g/ | %14
 ^D/f/C/e/ B,/^d/A,/c/ | G,/B/ C/[Ge]/ A,/[Af]/ B,/[F^d]/ | [Ge]2 B/>e/g/>b/ | %17
 b/>B/a/>B/ B/>^d/f/>a/ | a/>B/g/>B/ B/>e/g/>b/ | b/>B/a/>B/ B/>^d/f/>a/ | %20
 a/>B/g/>B/{/f} e/>^d/e/>g/ | c/>^d/e/>^e/ f/>g/a/>f/ | e/>^d/c/>B/ ^A/>B/c/>!f!d/ | %23
 e/>g/c/>f/ B,/>[Ge]/B,/>[F^d]/ | [Ge]2{/f} e/>^d/e/>c/ | !>![^Ace][Bd]{/f} e/>^d/e/>c/ | %26
 !>![^Ace][Bd]{/a} g/>^^f/g/>a/ | !>![ce^a][db]{/=a} g/>^^f/g/>a/ | %28
 !>![ce^a][db]{/c'} b/>^a/b/>c'/ |!>(! d'[=fgd'] [egd'][fgd']!>)! | %30
 !fermata![egd']2{/d'} c'/>b/c'/>e'/ | aa{/b} a/>g/a/>c'/ | e2 e/>^d/=d/>B/ | %33
!mf! c/>e/B/>e/ A/>e/c/>e/ | B2{/d'} c'/>b/c'/>e'/ | aa{/b} a/>g/a/>c'/ | e2 e/>^d/=d/>B/ | %37
 c/e/A/e/ B/e/G/e/ | [CA]2 |]"^Mineur"!f! a/e/{/g}f/e/ | z/ e/c'/e/ z/ d/b/d/ | %41
 z/ c/a/c/ ^d/e/{/g}f/e/ | z/ e/d'/e/ z/ e/c'/e/ | z/ ^g/b/e/ ^d/e/{/g}f/e/ | %44
 z/ e/c'/e/ z/ ^c/e/_b/ | z/ a/e/g/ f/A/e/d/ | z/ G/c/e/ z/ (g/f/)d/ | z/ c/G/E/ z/ e/{/g}f/e/ | %48
 B/e/c/e/ d/e/c/e/ | B/(e'/d'/)b/ ^g/!0!e/d/B/ | c/e/d/e/ e/!0!e/d/e/ | A,/C/E/A/ c/e/a/b/ | %52
!f! z/ e/c'/e/ z/ e/b/e/ | z/"_dim." e/^a/e/ z/ ^d/=a/d/ | z/ =d/^g/d/ z/ ^c/=g/c/ | %55
 z/ A/d/f/ z/ [ce]/F/[^cd]/ | z/ A/c/e/ z/ (d/B/)^G/ | z/ A/c/e/ (a/e/)c'/a/ | %58
 (e'/d'/)b/^g/ !0!e/(d/B/)^G/ | z/ A/c/e/ (a/e/)c'/a/ | (e'/d'/)b/^g/ e/(d/B/)^G/ | %61
 z/ A/^c/e/ (a/e/)^c'/a/ | (e'/"_rall."^d'/)=d'/b/ g/!0!e/d/B/ || %63
[K:A] !fermata!z2!p! c'/>b/c'/>e'/ | aa{/b} a/>g/a/>c'/ | e2 e/>^d/=d/>B/ |!f! c/e/B/e/ A/e/c/e/ | %67
 B2!p!{/d'} c'/>b/c'/>e'/ | aa{/b} a/>g/a/>c'/ | e2 e/>^d/=d/>B/ |!f! c/>e/A/>e/ B/>e/G/>e/ | %71
 A2{/f} e/^d/e/f/ | e/(^d/=d/)B/ G/(E/D/)B,/ | C/E/A/c/ e/(a/g/)f/ | e/(^d/=d/)B/ G/(E/D/)B,/ | %75
 C/E/A/c/{/f} e/^d/e/a/ |!f! A/c'/G/b/ F/a/E/g/ | D/f/C/[^Ae]/ B,/[Bd]/=A,/[B^d]/ | %78
!p!{/f} e/^d/e/f/{/a} g/^^f/g/a/ |{/c'} b/^a/b/^b/{/d'} c'/>b/c'/>e'/ | aa{/b} a/>g/a/>c'/ | %81
 e2 e/>^d/=d/>B/ | c/>e/a/>c'/ e'[Bdg] | [Aca]/>e/c/>A/ E[Bdg] | [Aca]2 Aa | Ee Cc | %86
 [A,A]2 [Acea]2 | [Acea]4 |] %88
V:2
 z2 | A,2 z2 | E,2 z2 | AE CA | E2 z2 | A,2 z2 | E,2 z2 | AC DE | A,2 z2 | E,4 | C z z2 | E,4 | %12
 C z z2 | AG FE | ^DC B,A, | G,C A,B, | E,2 z2 | F2 z2 | E,2 z2 | F2 z2 | E,2 z2 | A,2 F,2 | %22
 B,2 z =A, | G,G, xx | E,2 z2 | E,2 z2 | E,2 z2 | E,2 z2 | E,2 z2 | z4 | E,2 z2 | A,2 z2 | E,2 z2 | %33
 AE CA | E2 z2 | A,2 z2 | E,2 z2 | AC DE | C2 |] z2 | A,2 E,2 | A,2 z2 | E,2 A,2 | E,2 z2 | %44
 A,2 G2 | F2 z D | G,2 G2 | C2 C z | ^G,A, B,A, | ^G, z z2 | A,B, CB, | c2 z2 | A2 G2 | ^F2 B,2 | %54
 E2 A,2 | D2 EF | E2 E,2 | A,2 z2 | E,4 | A,2 z2 | E,4 | A,2 z2 | E,4 ||[K:A] z4 | A,2 z2 | %65
 E,2 z2 | AE CA | A,2 z2 | A,2 z2 | E,2 z2 | AC DE | C2 z2 | E,4 | C z z2 | E,4 | C z z2 | AG FE | %77
 DC B,A, | G,2 z2 | z4 | A,2 z2 | E,2 z2 | A,2 z E, | A,2 z E, | A,2 A2 | E2 C2 | A,2 A,2 | A,4 |] %88
V:3
{/!1!d} !1!c3/4 !1!B/4 !1!c3/4 !1!e/4 | !1!A !1!A{/!1!B} !1!A3/4 !1!G/4 !1!A3/4 !1!c/4 | %2
 !1!E2 !1!E/ !2!^D/ !2!=D/ !2!B,/ | !2!C/ !1!E/ !2!B,/ !1!E/ !3!A,/ !1!E/ !2!C/ !1!E/ | %4
 !2!B,2{/!1!d} !1!c3/4 !1!B/4 !1!c3/4 !1!e/4 | !1!A !1!A{/!1!B} !1!A3/4 !1!G/4 !1!A3/4 !1!c/4 | %6
 !1!E2 !1!E/ !2!^D/ !2!=D/ !2!B,/ | !2!C/ !1!E/ !3!A,/ !1!E/ !2!B,/ !1!E/ !3!G,/ !1!E/ | %8
 !3!A,2{/!1!G} !1!E/ !2!^D/ !1!E/ !1!F/ | %9
 !1!E/ (!2!^D/ !2!=D/) !2!B,/ !3!G,/ (!4!E,/ !4!D,/) !5!B,,/ | %10
 !6!x/ !4!E,/ !3!A,/ !2!C/ !1!E/ !1!A/ !1!G/ !1!F/ | %11
 !1!E/ (!2!^D/ !2!=D/) !2!B,/ !3!G,/ (!4!E,/ !4!D,/) !5!B,,/ | %12
 !6!x/ !4!E,/ !3!A,/ !2!C/{/!1!F} !1!E/ !2!^D/ !1!E/ !1!A/ | %13
 !3!x/ !1!c/ !4!G,/ !1!B/ !5!x/ !1!A/ !5!x/ !1!G/ | %14
 !5!x/ !1!F/ !6!x/ !1!E/ !6!x/ !2!^D/ !6!x/ !2!C/ | %15
 !6!G,,/ !2!B,/ !6!x/ [!3!G,!1!E]/ !6!x/ [!3!A,!1!F]/ !6!x/ [!4!F,!2!^D]/ | %16
 [!3!G,!1!E]2 !2!B,3/4 !1!E/4 !1!G3/4 !1!B/4 | %17
 !1!B3/4 !2!B,/4 !1!A3/4 !2!B,/4 !2!B,3/4 !2!^D/4 !1!F3/4 !1!A/4 | %18
 !1!A3/4 !2!B,/4 !1!G3/4 !2!B,/4 !2!B,3/4 !1!^E/4 !1!G3/4 !1!B/4 | %19
 !1!B3/4 !2!B,/4 !1!A3/4 !2!B,/4 !2!B,3/4 !2!^D/4 !1!F3/4 !1!A/4 | %20
 !1!A3/4 !2!B,/4 !1!G3/4 !2!B,/4{/!1!F} !1!E3/4 !2!^D/4 !1!E3/4 !1!G/4 | %21
 !2!C3/4 !2!^D/4 !1!E3/4 !1!^E/4 !1!F3/4 !1!^G/4 !1!A3/4 !1!F/4 | %22
 !1!E3/4 !2!^D/4 !2!C3/4 !2!B,/4 !3!^A,3/4 !2!^B,/4 !2!C3/4 !2!D/4 | %23
 !1!E3/4 !1!G/4 !2!C3/4 !1!F/4 !6!x3/4 [!3!G,!1!^E]/4 !6!x3/4 [!4!F,!2!^D]/4 | %24
 [!3!G,!1!E]2{/!1!F} !1!E3/4 !2!^D/4 !1!E3/4 !2!C/4 | %25
 !>![!3!^A,!2!C!1!E] [!3!B,!2!D]{/!1!F} !1!E3/4 !2!^D/4 !1!E3/4 !2!C/4 | %26
 !>![!3!^A,!2!C!1!E] [!3!B,!2!D]{/!1!A} !1!G3/4 !1!^F/4 !1!G3/4 !1!A/4 | %27
 !>![!3!^C!2!E!1!^A] [!2!D!1!B]{/!1!=A} !1!G3/4 !1!^F/4 !1!G3/4 !1!A/4 | %28
 !>![!3!^C!2!E!1!^A] [!2!D!1!B]{/!1!c} !1!B3/4 !1!^A/4 !1!B3/4 !1!c/4 | %29
!>(! !1!d [!3!=F!2!G!1!d] [!3!E!2!G!1!d] [!3!F!2!G!1!d]!>)! | %30
 !fermata![!3!^E!2!G!1!d]2{/!1!d} !1!c3/4 !1!^B/4 !1!c3/4 !1!e/4 | %31
 !1!A !1!A{/!1!B} !1!A3/4 !1!^G/4 !1!A3/4 !1!c/4 | !1!^E2 !1!=E3/4 !2!^D/4 !2!=D3/4 !2!B,/4 | %33
 !2!^C3/4 !1!E/4 !2!B,3/4 !1!E/4 !3!A,3/4 !1!^E/4 !2!C3/4 !1!=E/4 | %34
 !2!^B,2{/!1!d} !1!c3/4 !1!^B/4 !1!c3/4 !1!e/4 | %35
 !1!^A !1!=A{/!1!B} !1!A3/4 !1!^G/4 !1!A3/4 !1!c/4 | !1!E2 !1!E3/4 !2!^D/4 !2!=D3/4 !2!B,/4 | %37
 !2!C/ !1!E/ !3!A,/ !1!E/ !2!B,/ !1!E/ !3!G,/ !1!E/ | [!5!C,!3!A,]2 |] %39
 !1!A/ !1!E/{/!1!G} !1!F/ !1!E/ | x/ !2!E/ !1!c/ !2!E/ x/ !2!D/ !1!B/ !2!D/ | %41
 x/ !2!C/ !1!A/ !2!C/ !2!^D/ !1!E/{/!1!G} !1!F/ !1!E/ | x/ !2!E/ !1!d/ !2!E/ x/ !2!E/ !1!c/ !2!E/ | %43
 x/ !2!^G/ !1!B/ !2!E/ !2!^D/ !1!E/{/!1!G} !1!F/ !1!E/ | %44
 x/ !2!E/ !1!c/ !2!E/ x/ !3!^C/ !2!E/ !1!_B/ | x/ !1!A/ !2!E/ !1!G/ !1!F/ !3!A,/ !1!E/ !2!D/ | %46
 x/ !3!G,/ !2!C/ !1!E/ x/ (!1!G/ !1!F/) !2!D/ | %47
 x/ !2!C/ !3!G,/ !4!E,/ x/ !1!E/{/!1!G} !1!F/ !1!E/ | %48
 !2!B,/ !1!E/ !2!C/ !1!E/ !2!D/ !1!E/ !2!C/ !1!E/ | %49
 !2!B,/ (!1!e/ !1!d/) !1!B/ !1!^G/ !1!E/ !2!D/ !2!B,/ | %50
 !2!C/ !1!E/ !2!D/ !1!E/ !1!E/ !1!E/ !2!D/ !1!E/ | %51
 !5!A,,/ !5!C,/ !4!E,/ !3!A,/ !2!C/ !1!E/ !1!A/ !1!B/ | x/ !2!E/ !1!c/ !2!E/ x/ !2!E/ !1!B/ !2!E/ | %53
 x/ !2!E/ !1!^A/ !2!E/ x/ !2!^D/ !1!=A/ !2!D/ | x/ !2!=D/ !1!^G/ !2!D/ x/ !2!^C/ !1!=G/ !2!C/ | %55
 x/ !3!A,/ !2!D/ !1!F/ x/ [!2!C!1!E]/ !5!x/ [!3!^C!2!D]/ | %56
 x/ !3!A,/ !2!C/ !1!E/ x/ (!2!D/ !2!B,/) !3!^G,/ | %57
 x/ !3!A,/ !2!C/ !1!E/ (!1!A/ !1!E/) !1!c/ !1!A/ | %58
 (!1!e/ !1!d/) !1!B/ !1!^G/ !1!E/ (!2!D/ !2!B,/) !3!^G,/ | %59
 x/ !3!A,/ !2!C/ !1!E/ (!1!A/ !1!E/) !1!c/ !1!A/ | %60
 (!1!e/ !1!d/) !1!B/ !1!^G/ !1!E/ (!2!D/ !2!B,/) !3!^G,/ | %61
 x/ !3!A,/ !2!^C/ !1!E/ (!1!A/ !1!E/) !1!^c/ !1!A/ | %62
 (!1!e/ !1!^d/) !1!=d/ !1!B/ !1!G/ !1!E/ !2!D/ !2!B,/ || %63
[K:A] !fermata!x2 !1!c3/4 !1!B/4 !1!c3/4 !1!e/4 | !1!A !1!A{/!1!B} !1!A3/4 !1!G/4 !1!A3/4 !1!c/4 | %65
 !1!E2 !1!E3/4 !2!^D/4 !2!=D3/4 !2!B,/4 | !2!C/ !1!E/ !2!B,/ !1!E/ !3!A,/ !1!E/ !2!C/ !1!E/ | %67
 !2!B,2{/!1!d} !1!c3/4 !1!B/4 !1!c3/4 !1!e/4 | !1!A !1!A{/!1!B} !1!A3/4 !1!G/4 !1!A3/4 !1!c/4 | %69
 !1!E2 !1!E3/4 !2!^D/4 !2!=D3/4 !2!B,/4 | %70
 !2!C3/4 !1!E/4 !3!A,3/4 !1!E/4 !2!B,3/4 !1!E/4 !3!G,3/4 !1!E/4 | %71
 !3!A,2{/!1!F} !1!E/ !2!^D/ !1!E/ !1!F/ | %72
 !1!E/ (!2!^D/ !2!=D/) !2!B,/ !3!G,/ (!4!^E,/ !4!D,/) !5!B,,/ | %73
 !6!x/ !4!^E,/ !3!=A,/ !2!C/ !1!E/ (!1!A/ !1!G/) !1!F/ | %74
 !1!E/ (!2!^D/ !2!=D/) !2!B,/ !3!G,/ (!4!E,/ !4!D,/) !5!B,,/ | %75
 !6!x/ !4!E,/ !3!A,/ !2!C/{/!1!F} !1!E/ !2!^D/ !1!E/ !1!A/ | %76
 !4!A,/ !1!^c/ !4!=G,/ !1!B/ !4!F,/ !1!A/ !4!E,/ !1!G/ | %77
 !5!x/ !1!F/ !5!C,/ [!3!^A,!1!E]/ !5!B,,/ [!3!B,!2!D]/ !5!=A,,/ [!3!B,!2!^D]/ | %78
{/!1!F} !1!E/ !2!^D/ !1!=E/ !1!F/{/!1!A} !1!G/ !1!^^F/ !1!G/ !1!A/ | %79
{/!1!c} !1!B/ !1!^A/ !1!B/ !1!^B/{/!1!d} !1!c3/4 !1!B/4 !1!c3/4 !1!e/4 | %80
 !1!A !1!=A{/!1!B} !1!A3/4 !1!G/4 !1!A3/4 !1!c/4 | !1!E2 !1!E3/4 !2!^D/4 !2!=D3/4 !2!B,/4 | %82
 !2!C3/4 !1!^E/4 !1!=A3/4 !1!c/4 !1!e [!3!B,!2!D!1!G] | %83
 [!3!A,!2!C!1!A]3/4 !1!E/4 !2!C3/4 !3!A,/4 !4!E, [!3!B,!2!D!1!G] | [!3!A,!2!C!1!A]2 !4!x !1!A | %85
 !4!E, !1!E !5!C, !2!C | [!6!x!3!A,]2 [!4!A,!3!C!2!E!1!A]2 | [!4!A,!3!C!2!E!1!A]4 |] %88
V:4
 x2 | !5!A,,2 x2 | !6!E,,2 x2 | !3!A, !4!E, !5!C, !3!A, | !4!E,2 x2 | !5!A,,2 x2 | !6!E,,2 x2 | %7
 !3!A, !5!C, !4!D, !4!E, | !5!A,,2 x2 | !6!E,,4 | !5!C, x x2 | !6!E,,4 | !5!C, x x2 | %13
 !4!A, !5!x !4!F, !4!E, | !4!^D, !5!C, !5!B,, !5!A,, | !6!G,, !5!C, !5!A,, !5!B,, | !6!E,,2 x2 | %17
 !4!F,2 x2 | !6!E,,2 x2 | !4!F,2 x2 | !6!E,,2 x2 | !5!A,,2 !6!F,,2 | !5!B,,2 x !5!=A,, | %23
 !6!G,, !6!G,, !5!B,, !5!B,, | !6!E,,2 x2 | !6!E,,2 x2 | !6!E,,2 x2 | !6!E,,2 x2 | !6!E,,2 x2 | %29
 x4 | !6!E,,2 x2 | !5!A,,2 x2 | !6!E,,2 x2 | !3!A, !4!E, !5!C, !3!A, | !4!E,2 x2 | !5!A,,2 x2 | %36
 !6!E,,2 x2 | !3!A, !5!C, !4!D, !4!E, | !6!x2 |] x2 | !5!A,,2 !6!E,,2 | !5!A,,2 x2 | %42
 !6!E,,2 !5!A,,2 | !6!E,,2 x2 | !5!A,,2 !4!G,2 | !4!F,2 x !4!D, | !6!G,,2 !3!G,2 | !5!C,2 !5!C, x | %48
 !6!^G,, !5!A,, !5!B,, !5!A,, | !6!^G,, x x2 | !5!A,, !5!B,, !5!C, !5!B,, | !2!C2 x2 | %52
 !4!A,2 !4!G,2 | !4!^F,2 !5!B,,2 | !4!E,2 !5!A,,2 | !4!D,2 !4!E, !4!F, | !4!E,2 !6!E,,2 | %57
 !5!A,,2 x2 | !6!E,,4 | !5!A,,2 x2 | !6!E,,4 | !5!A,,2 x2 | !6!E,,4 ||[K:A] x4 | !5!A,,2 x2 | %65
 !6!E,,2 x2 | !3!A, !4!E, !5!C, !3!A, | !5!A,,2 x2 | !5!A,,2 x2 | !6!E,,2 x2 | %70
 !3!A, !5!C, !4!D, !4!E, | !5!C,2 x2 | !6!E,,4 | !5!C, x x2 | !6!E,,4 | !5!C, x x2 | %76
 !3!x !3!x !5!x !5!x | !4!D, !6!x !6!x !6!x | !6!G,,2 x2 | x4 | !5!A,,2 x2 | !6!E,,2 x2 | %82
 !5!A,,2 x !6!E,, | !5!A,,2 x !6!E,, | !5!A,,2 !3!A,2 | !5!x2 !6!x2 | !5!A,,2 !5!A,,2 | !5!A,,4 |] %88

